X:750
%%etbk:tnset id:480,pos:1,rep:3x,ant:
%%etbk:pldat 2016-05-05T11:46,2016-05-04T14:56,2016-05-03T16:51,2016-05-02T18:30,2016-04-09T15:09,2016-04-08T18:35,2016-04-07T16:03,2016-04-05T15:58,2016-04-04T19:00,2016-04-03T14:38,2016-04-02T14:13,2016-03-31T15:51,2016-03-30T16:32,2016-03-28T16:17,2016-01-02T13:02,2015-12-03T18:27,2015-12-02T16:23,2015-12-01T15:37,2015-11-26T18:45,2015-11-04T15:57,2015-11-03T16:01,2015-11-01T14:09,2015-10-26T18:35,2015-10-24T15:30,2015-10-19T18:36,2015-10-08T18:19,2015-10-06T16:41,2015-10-05T19:08,2015-10-03T16:44,2015-10-01T18:20,2015-09-30T16:03,2015-09-28T18:49,2015-08-28T18:31,2015-08-19T15:04,2015-08-16T14:23,2015-08-11T16:03,2015-08-10T18:01,2015-07-31T17:07,2015-07-29T17:20,2015-07-25T14:18,2015-07-24T18:19,2015-07-17T09:27,2015-06-06T14:09
T: Lover's Token
Z: Piano Box Version by Martin Fleischmann
H: Created 2015-06-06 /  Last Modified 2015-08-19
R: song
M: 3/4
L: 1/8
K: Gmaj
"G"!5!gf|: "C"!3!e2d2 (3def |"G"!5!g4 (3G!2!B!4!d  |"C"!5!e2!4!d2 !3!(3BAG  |1[M:4/4]"D"A2"G"G4gf :|2[M:4/4] "D"A2"G"G4ga|
|[M:3/4]"em"!5!ba !3!ge !1!dg | "D"!4!a4!5!ba |"C"!3!g!1!e !2!d!3!e !5!g2 |"D"!2!B !1!A-A2 ga|
|[M:3/4]"em"ba ge de | "G"g4 (3GBd |"C"e2 d2 (3BAG |[M:4/4] "D"A2 "G"G6 ||


